assets/images/icons/shopping-cart.svg

<svg enable-background="new 0 0 511.999 511.999" viewBox="0 0 511.999 511.999" xmlns="http://www.w3.org/2000/svg"><path d="m214.685 402.828c-24.829 0-45.029 20.2-45.029 45.029s20.2 45.029 45.029 45.029 45.029-20.2 45.029-45.029c-.001-24.829-20.201-45.029-45.029-45.029zm0 64.914c-10.966 0-19.887-8.922-19.887-19.887 0-10.966 8.922-19.887 19.887-19.887s19.887 8.922 19.887 19.887c0 10.967-8.922 19.887-19.887 19.887z"/><path d="m372.63 402.828c-24.829 0-45.029 20.2-45.029 45.029s20.2 45.029 45.029 45.029 45.029-20.2 45.029-45.029c-.001-24.829-20.201-45.029-45.029-45.029zm0 64.914c-10.966 0-19.887-8.922-19.887-19.887 0-10.966 8.922-19.887 19.887-19.887 10.966 0 19.887 8.922 19.887 19.887 0 10.967-8.922 19.887-19.887 19.887z"/><path d="m383.716 165.755h-180.149c-6.943 0-12.571 5.628-12.571 12.571s5.629 12.571 12.571 12.571h180.149c6.943 0 12.571-5.628 12.571-12.571 0-6.944-5.628-12.571-12.571-12.571z"/><path d="m373.911 231.035h-160.538c-6.943 0-12.571 5.628-12.571 12.571s5.628 12.571 12.571 12.571h160.537c6.943 0 12.571-5.628 12.571-12.571 0-6.942-5.628-12.571-12.57-12.571z"/><path d="m506.341 109.744c-4.794-5.884-11.898-9.258-19.489-9.258h-391.574l-7.908-38.389c-1.651-8.008-7.113-14.732-14.614-17.989l-55.177-23.95c-6.37-2.767-13.773.156-16.536 6.524-2.766 6.37.157 13.774 6.524 16.537l55.178 23.951 60.826 295.261c2.396 11.628 12.752 20.068 24.625 20.068h301.166c6.943 0 12.571-5.628 12.571-12.571s-5.628-12.571-12.571-12.571h-301.165l-7.399-35.916h310.892c11.872 0 22.229-8.44 24.624-20.068l35.163-170.675c1.531-7.432-.341-15.071-5.136-20.954zm-54.651 186.557h-316.071l-35.161-170.674 386.393.001z"/></svg>

<?xml version="1.0" encoding="iso-8859-1"?>
<!-- Generator: Adobe Illustrator 19.0.0, SVG Export Plug-In . SVG Version: 6.00 Build 0)  -->
<svg version="1.1" id="Layer_1" xmlns="http://www.w3.org/2000/svg" xmlns:xlink="http://www.w3.org/1999/xlink" x="0px" y="0px"
	 viewBox="0 0 511.999 511.999" style="enable-background:new 0 0 511.999 511.999;" xml:space="preserve">
<g>
	<g>
		<path d="M214.685,402.828c-24.829,0-45.029,20.2-45.029,45.029c0,24.829,20.2,45.029,45.029,45.029s45.029-20.2,45.029-45.029
			C259.713,423.028,239.513,402.828,214.685,402.828z M214.685,467.742c-10.966,0-19.887-8.922-19.887-19.887
			c0-10.966,8.922-19.887,19.887-19.887s19.887,8.922,19.887,19.887C234.572,458.822,225.65,467.742,214.685,467.742z"/>
	</g>
</g>
<g>
	<g>
		<path d="M372.63,402.828c-24.829,0-45.029,20.2-45.029,45.029c0,24.829,20.2,45.029,45.029,45.029s45.029-20.2,45.029-45.029
			C417.658,423.028,397.458,402.828,372.63,402.828z M372.63,467.742c-10.966,0-19.887-8.922-19.887-19.887
			c0-10.966,8.922-19.887,19.887-19.887c10.966,0,19.887,8.922,19.887,19.887C392.517,458.822,383.595,467.742,372.63,467.742z"/>
	</g>
</g>
<g>
	<g>
		<path d="M383.716,165.755H203.567c-6.943,0-12.571,5.628-12.571,12.571c0,6.943,5.629,12.571,12.571,12.571h180.149
			c6.943,0,12.571-5.628,12.571-12.571C396.287,171.382,390.659,165.755,383.716,165.755z"/>
	</g>
</g>
<g>
	<g>
		<path d="M373.911,231.035H213.373c-6.943,0-12.571,5.628-12.571,12.571s5.628,12.571,12.571,12.571h160.537
			c6.943,0,12.571-5.628,12.571-12.571C386.481,236.664,380.853,231.035,373.911,231.035z"/>
	</g>
</g>
<g>
	<g>
		<path d="M506.341,109.744c-4.794-5.884-11.898-9.258-19.489-9.258H95.278L87.37,62.097c-1.651-8.008-7.113-14.732-14.614-17.989
			l-55.177-23.95c-6.37-2.767-13.773,0.156-16.536,6.524c-2.766,6.37,0.157,13.774,6.524,16.537L62.745,67.17l60.826,295.261
			c2.396,11.628,12.752,20.068,24.625,20.068h301.166c6.943,0,12.571-5.628,12.571-12.571c0-6.943-5.628-12.571-12.571-12.571
			H148.197l-7.399-35.916H451.69c11.872,0,22.229-8.44,24.624-20.068l35.163-170.675
			C513.008,123.266,511.136,115.627,506.341,109.744z M451.69,296.301H135.619l-35.161-170.674l386.393,0.001L451.69,296.301z"/>
	</g>
</g>
<g>
</g>
<g>
</g>
<g>
</g>
<g>
</g>
<g>
</g>
<g>
</g>
<g>
</g>
<g>
</g>
<g>
</g>
<g>
</g>
<g>
</g>
<g>
</g>
<g>
</g>
<g>
</g>
<g>
</g>
</svg>
